icons/editor/list-numbers.svg

<svg width="32" height="32" viewBox="0 0 32 32" xmlns="http://www.w3.org/2000/svg">
    <path fill-rule="evenodd" d="M8 12h2v2H4v-2h2V7H4V5h2V4h2v8zm6-4h14V6H14v2zm14 9H14v-2h14v2zm0 9H14v-2h14v2zM8 22v-2H4v-2h4.5a1.5 1.5 0 011.5 1.5v3A1.5 1.5 0 018.5 24H6v2h4v2H4v-4.5A1.5 1.5 0 015.5 22H8z"/>
</svg>

<svg width="32" height="32" viewBox="0 0 32 32" fill="none" xmlns="http://www.w3.org/2000/svg">
<path fill-rule="evenodd" clip-rule="evenodd" d="M8 12H10V14H4V12H6V7H4V5H6V4H8V12ZM14 8H28V6H14V8ZM28 17H14V15H28V17ZM28 26H14V24H28V26ZM8 22V20H4V18H8.5C9.32843 18 10 18.6716 10 19.5V22.5C10 23.3284 9.32843 24 8.5 24H6V26H10V28H5H4V27V23.5C4 22.6716 4.67157 22 5.5 22H8Z" fill="black"/>
</svg>
